Flat-Remix-Dark/apps/scalable/system-users.svg

<svg xmlns="http://www.w3.org/2000/svg" width="384pt" height="384pt" version="1.1" viewBox="0 0 384 384">
 <circle style="opacity:0.3;paint-order:markers stroke fill" cx="192" cy="199.5" r="168.737"/>
 <circle style="fill:#ffffff;paint-order:markers stroke fill" cx="192" cy="192" r="168.737"/>
 <path style="opacity:0.7;fill-opacity:0.99607801" d="m 255.54688,91.541016 c -38.08855,0.07292 -63.40168,14.119794 -73.99024,41.062504 -4.16879,10.61686 -6.07554,23.18924 -5.75976,38.00195 0.26111,-12.23699 2.16609,-22.84976 5.75976,-32.00195 10.58856,-26.94271 35.90169,-40.989584 73.99024,-41.062504 19.53123,-0.0364 30.42707,3.365244 38.67187,12.068364 2.73959,2.89583 4.39128,3.85417 7.47461,4.34374 2.17188,0.34376 6.81641,2.00521 10.31641,3.6875 12.625,6.07812 21.3854,18.65169 24.45312,35.09961 0.83946,4.50809 1.3143,9.5563 1.44727,14.96875 0.15613,-7.69701 -0.30511,-14.83509 -1.44727,-20.96875 -3.06772,-16.44792 -11.82812,-29.02149 -24.45312,-35.09961 -3.5,-1.68229 -8.14453,-3.34373 -10.31641,-3.6875 -3.08333,-0.48957 -4.73502,-1.4479 -7.47461,-4.34374 -8.2448,-8.703125 -19.14064,-12.104764 -38.67187,-12.068364 z M 181.38672,219.19922 c -0.40781,0.78132 -1.0223,1.68001 -1.95508,3.0039 -2.90625,4.12499 -2.99414,4.5 -2.99414,12.75 0,0.65357 0.0179,1.29325 0.0391,1.93165 0.11737,-4.42381 0.63577,-5.38972 2.95508,-8.68165 2.9501,-4.18706 2.97699,-4.2958 1.95508,-9.0039 z m 149.42578,0.39648 c -0.0799,0.28332 -0.15316,0.56872 -0.23438,0.85157 -0.96354,3.34894 -0.85939,3.75065 1.96876,7.77148 2.31066,3.27899 2.82817,4.24566 2.94531,8.66602 0.0212,-0.63856 0.0391,-1.27806 0.0391,-1.93165 0,-8.24477 -0.0885,-8.625 -2.98437,-12.73437 -0.77889,-1.10735 -1.33411,-1.92761 -1.73438,-2.62305 z M 115.34961,406.38086 c 0.72395,-0.005 2.5052,-0.81901 3.95312,-1.80859 5.4323,-3.70834 22.39061,-11.76563 39.04688,-18.54688 30.71875,-12.51563 41.22397,-18.32746 47.8125,-26.46289 5.83332,-7.20833 5.95311,-7.74934 6.0625,-27.29102 l 0.0977,-17.76171 -0.0332,-0.043 -0.0644,11.80468 c -0.10939,19.54168 -0.22918,20.08267 -6.0625,27.29102 -6.58853,8.13541 -17.09375,13.94726 -47.8125,26.46289 -16.65625,6.78125 -33.61458,14.83854 -39.04688,18.54688 -1.4479,0.98957 -8.3817,5.0575 -9.10566,5.06283 z m 285.01699,-2.79019 c -1.1198,0.35416 -7.05476,-4.61738 -12.05996,-7.62778 -7.27604,-4.38023 -18.32748,-9.36979 -47.44726,-21.42187 -22.27083,-9.21876 -32.45898,-16.27994 -37.88086,-26.23829 -2.48958,-4.57292 -2.51954,-4.81901 -2.89454,-22.49609 l -0.25195,-12.00195 -0.12305,0.12695 0.375,17.875 c 0.375,17.67708 0.40496,17.92317 2.89454,22.49609 5.42188,9.95834 15.61003,17.01954 37.88086,26.23829 29.11978,12.05206 40.17122,17.04167 47.44726,21.42187 5.0052,3.01041 8.06379,4.33854 9.18359,3.98438 z" transform="scale(0.75)"/>
 <g>
  <path style="fill:#fd4747;fill-opacity:0.99607801" d="M 170.89453,359.83604 C 145.23828,356.66025 120.38281,347.46494 98.984375,333.23447 65.753906,311.13682 41.566406,278.79697 30.191406,241.2501 27.539062,232.504 24.851562,219.28525 23.90625,210.35557 c -0.875,-8.23828 -0.875,-28.41016 0,-36.64844 7.078125,-66.85938 54.375,-123.960939 118.875,-143.515627 8.74609,-2.652344 21.96094,-5.339844 30.88672,-6.285156 8.23828,-0.875 28.40234,-0.875 36.64062,0 39.01563,4.132812 75.23047,21.890625 103.01563,50.507812 19.10937,19.6875 32.62109,42.531251 40.46094,68.398441 4.87109,16.07031 6.96484,30.875 6.96484,49.21875 0,13.78906 -0.69141,21.34765 -3.03906,33.27734 -11.95313,60.6836 -57.16407,110.56641 -116.51563,128.5625 -8.74609,2.65235 -21.96094,5.34375 -30.88672,6.28906 -8.64062,0.91407 -30.89062,0.73438 -39.41406,-0.32421 z M 89.476562,303.42979 c 4.074219,-2.78125 16.792968,-8.82422 29.285158,-13.91016 23.03906,-9.38672 30.91797,-13.74609 35.85937,-19.84766 4.375,-5.40625 4.46485,-5.8125 4.54688,-20.46875 l 0.0742,-13.32031 -3.42969,-4.52344 c -5.4375,-7.16406 -9.43359,-16.02343 -11.26953,-24.99609 -0.70313,-3.44922 -1.01563,-3.92578 -3.32813,-5.10547 -5.55468,-2.83594 -8.88672,-10.53516 -8.88672,-20.54297 0,-6.1875 0.0664,-6.46875 2.2461,-9.5625 2.22656,-3.16015 2.23437,-3.21484 1.45312,-6.8125 -5.67187,-26.08203 -5.625,-45.70312 0.14063,-60.38672 7.9414,-20.207029 26.92578,-30.742185 55.49219,-30.796873 14.64843,-0.02734 22.82031,2.523438 29.0039,9.050781 2.05469,2.171875 3.29297,2.890625 5.60547,3.257813 1.62891,0.257812 5.11328,1.503906 7.73828,2.765625 9.46875,4.558593 16.03906,13.988284 18.33985,26.324224 2.46875,13.25781 0.78125,32.6875 -4.41407,50.78125 -0.72265,2.51171 -0.64453,2.8125 1.47657,5.82812 2.17187,3.08203 2.23828,3.36719 2.23828,9.55078 0,9.99219 -3.33203,17.70703 -8.86719,20.53125 -2.39844,1.22266 -2.58594,1.55469 -3.65625,6.42188 -2.04688,9.3164 -7.35938,20.53125 -12.01172,25.35937 l -2.33203,2.42188 0.28125,13.40625 c 0.28125,13.25781 0.30469,13.4414 2.17187,16.87109 4.06641,7.46875 11.70704,12.76563 28.41016,19.67969 21.83984,9.03906 30.12891,12.78125 35.58594,16.0664 3.7539,2.25782 6.04687,3.25391 6.88672,2.98829 1.67968,-0.53125 12.23047,-12.27735 18.15625,-20.21094 15.12109,-20.23828 25.05859,-44.30469 29.09765,-70.45703 1.63282,-10.57422 1.625,-33.01172 -0.0117,-43.51953 -2.625,-16.85547 -7.46093,-32.27735 -14.66406,-46.77735 -22.84765,-46.007812 -65.3125,-76.820312 -116.95312,-84.874999 -10.54688,-1.644532 -32.96094,-1.644532 -43.50782,0 -16.85156,2.625 -32.26953,7.460937 -46.76562,14.664062 -45.992188,22.859375 -76.800781,65.332037 -84.851562,116.988287 -1.644532,10.55078 -1.644532,32.96875 0,43.51953 5.15625,33.09375 19.117187,61.58984 42.078124,85.88672 2.65625,2.80859 5.273438,5.10937 5.816407,5.10546 0.542969,-0.004 1.878906,-0.61328 2.964843,-1.35546 z m 0,0"/>
 </g>
</svg>

<svg xmlns="http://www.w3.org/2000/svg" width="384pt" height="384pt" version="1.1" viewBox="0 0 384 384"> <g> <path style="fill:rgb(99.215%,28.627%,28.627%);fill-opacity:0.996078" d="M 170.894531 359.835938 C 145.238281 356.660156 120.382812 347.464844 98.984375 333.234375 C 65.753906 311.136719 41.566406 278.796875 30.191406 241.25 C 27.539062 232.503906 24.851562 219.285156 23.90625 210.355469 C 23.03125 202.117188 23.03125 181.945312 23.90625 173.707031 C 30.984375 106.847656 78.28125 49.746094 142.78125 30.191406 C 151.527344 27.539062 164.742188 24.851562 173.667969 23.90625 C 181.90625 23.03125 202.070312 23.03125 210.308594 23.90625 C 249.324219 28.039062 285.539062 45.796875 313.324219 74.414062 C 332.433594 94.101562 345.945312 116.945312 353.785156 142.8125 C 358.65625 158.882812 360.75 173.6875 360.75 192.03125 C 360.75 205.820312 360.058594 213.378906 357.710938 225.308594 C 345.757812 285.992188 300.546875 335.875 241.195312 353.871094 C 232.449219 356.523438 219.234375 359.214844 210.308594 360.160156 C 201.667969 361.074219 179.417969 360.894531 170.894531 359.835938 Z M 89.476562 303.429688 C 93.550781 300.648438 106.269531 294.605469 118.761719 289.519531 C 141.800781 280.132812 149.679688 275.773438 154.621094 269.671875 C 158.996094 264.265625 159.085938 263.859375 159.167969 249.203125 L 159.242188 235.882812 L 155.8125 231.359375 C 150.375 224.195312 146.378906 215.335938 144.542969 206.363281 C 143.839844 202.914062 143.527344 202.4375 141.214844 201.257812 C 135.660156 198.421875 132.328125 190.722656 132.328125 180.714844 C 132.328125 174.527344 132.394531 174.246094 134.574219 171.152344 C 136.800781 167.992188 136.808594 167.9375 136.027344 164.339844 C 130.355469 138.257812 130.402344 118.636719 136.167969 103.953125 C 144.109375 83.746094 163.09375 73.210938 191.660156 73.15625 C 206.308594 73.128906 214.480469 75.679688 220.664062 82.207031 C 222.71875 84.378906 223.957031 85.097656 226.269531 85.464844 C 227.898438 85.722656 231.382812 86.96875 234.007812 88.230469 C 243.476562 92.789062 250.046875 102.21875 252.347656 114.554688 C 254.816406 127.8125 253.128906 147.242188 247.933594 165.335938 C 247.210938 167.847656 247.289062 168.148438 249.410156 171.164062 C 251.582031 174.246094 251.648438 174.53125 251.648438 180.714844 C 251.648438 190.707031 248.316406 198.421875 242.78125 201.246094 C 240.382812 202.46875 240.195312 202.800781 239.125 207.667969 C 237.078125 216.984375 231.765625 228.199219 227.113281 233.027344 L 224.78125 235.449219 L 225.0625 248.855469 C 225.34375 262.113281 225.367188 262.296875 227.234375 265.726562 C 231.300781 273.195312 238.941406 278.492188 255.644531 285.40625 C 277.484375 294.445312 285.773438 298.1875 291.230469 301.472656 C 294.984375 303.730469 297.277344 304.726562 298.117188 304.460938 C 299.796875 303.929688 310.347656 292.183594 316.273438 284.25 C 331.394531 264.011719 341.332031 239.945312 345.371094 213.792969 C 347.003906 203.21875 346.996094 180.78125 345.359375 170.273438 C 342.734375 153.417969 337.898438 137.996094 330.695312 123.496094 C 307.847656 77.488281 265.382812 46.675781 213.742188 38.621094 C 203.195312 36.976562 180.78125 36.976562 170.234375 38.621094 C 153.382812 41.246094 137.964844 46.082031 123.46875 53.285156 C 77.476562 76.144531 46.667969 118.617188 38.617188 170.273438 C 36.972656 180.824219 36.972656 203.242188 38.617188 213.792969 C 43.773438 246.886719 57.734375 275.382812 80.695312 299.679688 C 83.351562 302.488281 85.96875 304.789062 86.511719 304.785156 C 87.054688 304.78125 88.390625 304.171875 89.476562 303.429688 Z M 89.476562 303.429688"/> </g> </svg>
